X:1
T:The Green Fields Of Glentown
R:reel
M:4/4
L:1/8
K:Ador
|:EA,~A,2 E2DB,|G,B,~B,2 G,A,B,D|EA,~A,2 E2DE|GBeB dBAB|
|eB~B2 eBdB|AE~E2 DG,B,G,|A,E~E2 A,EDE|GEDG, B,A,~A,2:|
|:A2EA cAFA|GEDB, G,A,B,D|EA~A2 EAcd|edBA aged|
|bg~g2 abge|dB~B2 AEDB,|A,E~E2 A,EDE|GEDG, B,A,~A,2:|
|:A2EA cA~A2|aged bage|dG~G2 DGBd|egdA ABBd|
|e2ee f2dB|AE~E2 DG,B,G,|A,E~E2 A,EDE|GEDG, B,A,~A,2:|